X: 31914
T: Peacock's Feathers, The
R: hornpipe
M: 4/4
K: Dmajor
|:AG|FEDF AFAc|defd B2ef|~g2gf efdB|AFFD E2EF|
FEDF AFAc|defd B2ef|gefd (3efe dB|Adfe d2:|
|:fg|afge ~f2 fe|defd B2ef|~g2 gf efdB|AGFD E2EF|
FEDF AFAc|defd (3BdB ef|~g2 gf efdB|Agfe d2:|

